X:4953
T:Fairhaired Mary
R:Reel
S:
H:
N:
D: Tony O'Connell & Diarmuid O'Brien Live on Clare FM
Z:Adrian Scahill
M:4/4
L:1/8
K:D
EBBA B2AG|FDAD BDAF|EBBA ~B3e|1 dBAF BAGF:|2 dBAF EGBd||\
e2Be egfe|dBBc d3f|e2Be egfe|dBAF EGBd|\
e2Be egfe|dBBc d3e|f3e defe|dBAF BAGF||
